X: 34
T: Wests Hornpipe
R: hornpipe, reel
M: C|
L: 1/8
Z: 2010 John Chambers <jc:trillian.mit.edu>
B: Anonymous manuscript tune book (1800-1840) p.22
F: http://www.asaplive.com/archive/browse_by_collection.asp
N: The asaplive.com web site is complex, and links to its files don't usually work.
N: D is the more usual key for this hornpipe.
K: G
|: g2Bc  dBdB  | g2Bc  d3g   | edcB A2ab | c'ac'a gfed |
   g2Bc  dBdB  | g2Bc  d3g   | edcB A2ab | c'agf  g4  :|
|: b2gb  gbgb  | a2fa  fafa  | g2eg egeg | agfe   d4   |
   geTe2 fdTd2 | geTe2 fdTd2 | gfgd BdBG | d2d2   d2de/g/ :|


%%sep 5 1 500

